outputs/icons/content/add_circle_outline_sharp.svg

<svg xmlns="http://www.w3.org/2000/svg" width="1200" height="1200" fill="none"><g clip-path="url(#a)"><path fill="#000" d="M650 350H550v200H350v100h200v200h100V650h200V550H650zm-50-250c-276 0-500 224-500 500s224 500 500 500 500-224 500-500-224-500-500-500m0 900c-220.5 0-400-179.5-400-400s179.5-400 400-400 400 179.5 400 400-179.5 400-400 400"/></g><defs><clipPath id="a"><path fill="#fff" d="M0 0h1200v1200H0z"/></clipPath></defs></svg>

<svg width="1200" height="1200" viewBox="0 0 1200 1200" fill="none" xmlns="http://www.w3.org/2000/svg"><g clip-path="url(#clip0_122_142)"><path d="M650 350H550V550H350V650H550V850H650V650H850V550H650V350ZM600 100C324 100 100 324 100 600C100 876 324 1100 600 1100C876 1100 1100 876 1100 600C1100 324 876 100 600 100ZM600 1000C379.5 1000 200 820.5 200 600C200 379.5 379.5 200 600 200C820.5 200 1000 379.5 1000 600C1000 820.5 820.5 1000 600 1000Z" fill="#1D1E23"/></g><defs><clipPath id="clip0_122_142"><path width="24" fill="white" d="M0 0H1200V1200H0V0z"/></clipPath></defs></svg>
